X: 232
T: Freilach "SB6"
R: freilach, bulgar
Z: 2006 John Chambers <jc:trillian.mit.edu>
S: handwritten MS labelled "SB6"
M: 4/4
L: 1/8
%P: AABACC
K: Dphr^F
%%slurgraces 1
P:A
z2A, \
| "D"DEDE FGFE | GF3- F2zF | FGFG ABAG | BA3- A2D2 
| "Gm"GFGA BA"G7"B=B | "Cm"cCEG c2 (3CEG | (3cAc (3BAG "D"(3AFA "Cm"(3GFE | "D"(3FGA "Cm"(3GFE "D"D :|
P:B
DGB \
| "Gm"^cd3 zd^cB | ^cddd d3d | ^cdcB AGFG | "D"A4 zC=FA 
| "F"=B{d}c3 z2 (3edc | =B{d}ccc c3d | "F7"edcB "Cm"cBAG | "D"A2 {^c}dz {^c}d |]
P:C
|: dAG \
| "D"FGA2 zGFE | F>ED2 zdAG | FGAB "Cm"cA/c/ (3BAG | "D"A4 zdAG 
| "D"FGA2 zGFE | "Cm"DEC2 zCEG | (3cAc (3BAG "D"(3AFA "Cm"(3GFE | "D"(3FGA "Cm"(3GFE "D"D :|



